X:176
T:Jig. HA.175, A
M:9/4
L:1/4
Q:3/4=120
S:Henry Atkinson’s original MS,Hartburn,N’umberland,1694.
O:England
A:Hartburn,Northumberland
H:1/4
Z:vmp.Neil Brookes, Jan.2004
K:C
“_Barred 6/4 in MS”c2g (ge)a (ge)c|f2A (AB)c (dB)G|
c2g (ge)a (ge)c| d/2e/2 fA B/2c/2 dB c2G:|
|:E2G (GE)c (GE)G |(AF)A (GE)G (FD)F|
E2G (GE)c (GE)G |A/2B/2cA B/2c/2dB c2G:|

